Papirus/64x64/mimetypes/text-x-nix.svg

<svg width="64" height="64" version="1.1" xmlns="http://www.w3.org/2000/svg">
 <path d="m12.75 5c-1.5235 0-2.75 1.2488-2.75 2.8v50.4c0 1.55008 1.2265 2.8 2.75 2.8h38.5c1.5224 0 2.75-1.24992 2.75-2.8v-35.2l-14-4-4-14z" style="opacity:.2"/>
 <path d="m12.75 4c-1.5235 0-2.75 1.2488-2.75 2.8v50.4c0 1.55008 1.2265 2.8 2.75 2.8h38.5c1.5224 0 2.75-1.24992 2.75-2.8v-35.2l-14-4-4-14z" style="fill:#e4e4e4"/>
 <path d="m54 23-18-18v15.1875c0 1.55925 1.2555 2.8125 2.8125 2.8125z" style="opacity:.2"/>
 <path d="m54 22-18-18v15.1875c0 1.55925 1.2555 2.8125 2.8125 2.8125z" style="fill:#fafafa"/>
 <path d="M 12.75,4 C 11.2265,4 10,5.2495812 10,6.8007812 v 1 C 10,6.2495813 11.2265,5 12.75,5 H 36 V 4 Z" style="fill:#ffffff;opacity:.2"/>
 <g transform="matrix(2 0 0 2 -92.00207 .001794)">
  <g transform="matrix(1.5,0,0,1.5,46.971502,-2.049326)" style="opacity:.1">
   <path d="m9.1160261 13.5-2.7886755 4.830127-0.5773504-0.999999 0.75-1.299039-1.5 1e-6 -0.2886752-0.5 0.288675-0.5h2.0773502l0.883975-1.53109z"/>
   <path d="m11.059398 13.732049-5.309398 3e-6 0.5773504-1h1.499999l-0.7499987-1.299039 0.2886734-0.500001h0.5773502l1.038675 1.799039h1.4999997z"/>
   <path d="m11.057328 17.333716 2.654697-4.598075 0.57735 1-0.75 1.299037 1.5 2e-6 0.288677 0.499999-0.288675 0.5-2.077351-1e-6 -0.75 1.299038z"/>
   <path d="m8.9799751 17.333716h5.3094009l-0.57735 1h-1.5l0.75 1.299038-0.288675 0.5h-0.57735l-1.038675-1.799038h-1.4999998z"/>
   <path d="m12.098073 15.531089-2.6547003-4.598077h1.1547003l0.75 1.299038 0.75-1.299038h0.57735l0.288675 0.5-1.038675 1.799038 0.75 1.299038z"/>
   <path d="m7.9413021 15.534685 2.6547009 4.598069h-1.1547016l-0.75-1.299037-0.7499994 1.299037-0.57735 2e-6 -0.2886752-0.5 1.0386752-1.799037-0.75-1.299037z"/>
  </g>
  <g transform="matrix(1.5,0,0,1.5,46.971502,-2.55112)">
   <path d="m9.1160261 13.5-2.7886755 4.830127-0.5773504-0.999999 0.75-1.299039-1.5 1e-6 -0.2886752-0.5 0.288675-0.5h2.0773502l0.883975-1.53109z" style="fill:#6db9de"/>
   <path d="m11.059398 13.732049-5.309398 3e-6 0.5773504-1h1.499999l-0.7499987-1.299039 0.2886734-0.500001h0.5773502l1.038675 1.799039h1.4999997z" style="fill:#3f77b7"/>
   <path d="m11.057328 17.333716 2.654697-4.598075 0.57735 1-0.75 1.299037 1.5 2e-6 0.288677 0.499999-0.288675 0.5-2.077351-1e-6 -0.75 1.299038z" style="fill:#3f77b7"/>
   <path d="m8.9799751 17.333716h5.3094009l-0.57735 1h-1.5l0.75 1.299038-0.288675 0.5h-0.57735l-1.038675-1.799038h-1.4999998z" style="fill:#6db9de"/>
   <path d="m12.098073 15.531089-2.6547003-4.598077h1.1547003l0.75 1.299038 0.75-1.299038h0.57735l0.288675 0.5-1.038675 1.799038 0.75 1.299038z" style="fill:#6db9de"/>
   <path d="m7.9413021 15.534685 2.6547009 4.598069h-1.1547016l-0.75-1.299037-0.7499994 1.299037-0.57735 2e-6 -0.2886752-0.5 1.0386752-1.799037-0.75-1.299037z" style="fill:#3f77b7"/>
  </g>
  <path d="m58.712528 18.046956-0.289711 0.501794 1.732052-1e-6 0.289711-0.501794z" style="opacity:.1"/>
  <path d="m63.27089 18.046958 0.289711-2e-6 -0.866027-1.500001-0.289711 2e-6z" style="opacity:.1"/>
  <path transform="matrix(.5 0 0 .5 46.001035 -.000897)" d="m24.03279 44.503606 0.289715 0.501792 1.732051-3.000003-0.289715-0.501793z" style="opacity:.1"/>
 </g>
</svg>

<svg xmlns="http://www.w3.org/2000/svg" xml:space="preserve" width="64" height="64" version="1.1">
 <path style="opacity:0.2" d="M 12.75,5 C 11.2265,5 10,6.2488 10,7.8 v 50.4 c 0,1.55008 1.2265,2.8 2.75,2.8 h 38.5 C 52.7724,61 54,59.75008 54,58.2 V 23 L 40,19 36,5 Z"/>
 <path style="fill:#4d6fb7" d="M 12.75,4 C 11.2265,4 10,5.2488 10,6.8 v 50.4 c 0,1.55008 1.2265,2.8 2.75,2.8 h 38.5 C 52.7724,60 54,58.75008 54,57.2 V 22 L 40,18 36,4 Z"/>
 <path style="opacity:.2" d="m54 23-18-18v15.1875c0 1.55925 1.2555 2.8125 2.8125 2.8125z"/>
 <path style="fill:#87adfa;stop-color:#000000" d="M 54,22 36,4 V 19.1875 C 36,20.74675 37.2555,22 38.8125,22 Z"/>
 <path style="opacity:0.2;fill:#ffffff" d="M 12.75,4 C 11.2265,4 10,5.2495812 10,6.8007812 v 1 C 10,6.2495813 11.2265,5 12.75,5 H 36 V 4 Z"/>
 <g style="opacity:0.1" transform="matrix(0.01346691,0,0,0.01346691,31.996894,42.507176)">
  <polygon points="-624 249.42 -496 27.71 64 997.66 -192 997.66 -320 775.96 -448 997.66 -576 997.66 -640 886.81 -448 554.26"/>
  <polygon points="-528 -415.69 -272 -415.69 -832 554.26 -960 332.55 -832 110.85 -1088 110.85 -1152 0 -1088 -110.85 -704 -110.85"/>
  <polygon points="96 -665.11 224 -443.41 -896 -443.41 -768 -665.11 -512 -665.11 -640 -886.81 -576 -997.66 -448 -997.66 -256 -665.11"/>
  <polygon points="624 -249.42 496 -27.71 -64 -997.66 192 -997.66 320 -775.96 448 -997.66 576 -997.66 640 -886.81 448 -554.26"/>
  <polygon points="528 415.69 272 415.69 832 -554.26 960 -332.55 832 -110.85 1088 -110.85 1152 0 1088 110.85 704 110.85"/>
  <polygon points="-96 665.11 -224 443.41 896 443.41 768 665.11 512 665.11 640 886.81 576 997.66 448 997.66 256 665.11"/>
 </g>
 <g transform="matrix(0.01346691,0,0,0.01346691,31.996894,41.492824)">
  <polygon fill="#ffffff" points="64 997.66 -192 997.66 -320 775.96 -448 997.66 -576 997.66 -640 886.81 -448 554.26 -624 249.42 -496 27.71"/>
  <polygon fill="#ffffff" points="-832 554.26 -960 332.55 -832 110.85 -1088 110.85 -1152 0 -1088 -110.85 -704 -110.85 -528 -415.69 -272 -415.69"/>
  <polygon fill="#ffffff" points="-896 -443.41 -768 -665.11 -512 -665.11 -640 -886.81 -576 -997.66 -448 -997.66 -256 -665.11 96 -665.11 224 -443.41"/>
  <polygon fill="#ffffff" points="-64 -997.66 192 -997.66 320 -775.96 448 -997.66 576 -997.66 640 -886.81 448 -554.26 624 -249.42 496 -27.71"/>
  <polygon fill="#ffffff" points="832 -554.26 960 -332.55 832 -110.85 1088 -110.85 1152 0 1088 110.85 704 110.85 528 415.69 272 415.69"/>
  <polygon fill="#ffffff" points="896 443.41 768 665.11 512 665.11 640 886.81 576 997.66 448 997.66 256 665.11 -96 665.11 -224 443.41"/>
 </g>
</svg>
